public/images/products/doble-alu/benefit-2.svg

<svg fill="none" height="32" viewBox="0 0 28 32" width="28" xmlns="http://www.w3.org/2000/svg"><g fill="#fff"><path d="m17.8551 17.9886v-13.77694c0-2.32225-1.8902-4.21166-4.2136-4.21166-2.3233 0-4.21349 1.88941-4.21349 4.21166v13.77694c-2.15224 1.4211-3.42801 3.7788-3.42801 6.368 0 4.2146 3.42838 7.6434 7.6423 7.6434 4.2135 0 7.6408-3.4288 7.6408-7.6434 0-2.5892-1.2758-4.9469-3.428-6.368zm-4.2128 12.893c-3.5973 0-6.52386-2.9274-6.52386-6.525 0-2.301 1.1807-4.3873 3.15806-5.5814.1674-.101.2703-.2826.2703-.4783v-14.08524c0-1.70561 1.3887-3.09322 3.0951-3.09322s3.0951 1.38761 3.0951 3.09322v14.08524c0 .1957.1025.3773.2703.4783 1.9778 1.1941 3.1581 3.2804 3.1581 5.5814-.0008 3.5976-2.9266 6.525-6.5231 6.525zm.5585-9.9183v-12.03183c0-.30906-.2502-.55922-.5593-.55922-.309 0-.5592.25016-.5592.55922v12.03183c-1.6333.2684-2.8844 1.6854-2.8844 3.3933 0 1.9006 1.5453 3.4463 3.4436 3.4463 1.8995 0 3.4445-1.5457 3.4445-3.4463 0-1.7075-1.2516-3.1253-2.8852-3.3933zm-.5593 5.7211c-1.2821 0-2.3252-1.0442-2.3252-2.3278 0-1.2817 1.0431-2.3241 2.3252-2.3241 1.2825 0 2.326 1.0427 2.326 2.3241 0 1.2836-1.0435 2.3278-2.326 2.3278z"/><path d="m6.01188 17.6783c.27613 0 .49996-.2239.49996-.4999v-.565l.72499.5c.08281.0493.17884.0719.27502.0649.27608-.0022.49822-.2277.49606-.5038-.00121-.1651-.08407-.3191-.22108-.4111l-1.27494-.855v-.8177-1.4821-1.064-1.7317-1.06409-1.03989-1.25993l1.27494-.85494c.21508-.1732.24895-.48795.07575-.70298-.15087-.18731-.41373-.24062-.6257-.12695l-.72499.47999v-.56495c0-.27614-.22382-.49996-.49996-.49996-.27613 0-.49995.22382-.49995.49996v.56495l-.72494-.49995c-.21508-.1732-.52988-.13933-.70308.07575-.17315.21508-.13928.52977.07575.70297.02413.01944.04999.03656.07728.05125l1.27493.87491v2.29988c-.35056.0897-.67026.27286-.92495.52998l-1.99987-1.14994-.07502-1.52989c-.02207-.27608-.26385-.48205-.53993-.45987-.27608.02207-.482.26381-.45993.53994l.05495.86495-.49996-.28503c-.240258-.13807-.546891-.05521-.684904.185-.138119.24026-.055257.54694.184949.6849l.499955.28003-.779985.38497c-.2404176.13569-.325333.44064-.1896375.68116.0850205.15058.2418395.24658.4146725.25368.07812-.0014.154975-.0203.224983-.055l1.374917-.67994 1.99983 1.15494c-.10662.3452-.10662.7146 0 1.0599l-1.99983 1.1549-1.38993-.6849c-.24716-.1227-.546943-.0221-.6699438.225-.1227371.247-.0220191.5469.2249828.6699l.779931.385-.499954.28c-.240259.138-.323014.4447-.185.6849.138066.2403.444697.3231.684954.185l.49996-.285-.04499.8549c-.01991.2755.18716.5149.46256.5349.00079 0 .00152.0001.00242.0001h.03503c.26475.0005.484-.2056.4999-.47l.09998-1.5299 1.99983-1.1499c.246.2588.55669.4469.89993.5449v2.2999l-1.27494.855c-.21502.1732-.24895.4879-.07575.703.15082.1873.41373.2406.6257.1269l.72494-.4999v.5849c.0001.2761.22393.5.50011.5z"/><path d="m26.8673 10.6924h-1.5299c-.0484-.4488-.1665-.88742-.35-1.29994l1.3249-.76492c.2403-.13806.323-.44475.185-.68501-.1381-.24026-.4447-.32306-.6849-.185l-1.33.76993c-.2647-.36463-.5852-.68528-.9499-.94993l.7699-1.32993c.138-.24026.0553-.54689-.185-.68501-.2403-.13801-.5469-.05515-.685.18506l-.7649 1.32487c-.4125-.18352-.851-.30163-1.3-.34998v-1.5299c0-.27613-.2238-.49995-.4999-.49995s-.4999.22382-.4999.49995v1.5299 1.00602c.1634-.02339.3302-.03614.4999-.03614 1.9328 0 3.4998 1.56693 3.4998 3.49978 0 1.9328-1.5669 3.4998-3.4998 3.4998-.1698 0-.3366-.0128-.4999-.0362v1.0062 1.5298c0 .2761.2238.5.4999.5s.4999-.2239.4999-.5v-1.5298c.4489-.0485.8875-.1666 1.3-.3501l.7649 1.3249c.1381.2403.4447.3231.685.185s.323-.4447.185-.6849l-.7699-1.3299c.3647-.2647.6852-.5853.9499-.95l1.33.7699c.2402.1381.5468.0553.6849-.185.138-.2403.0553-.5468-.185-.6849l-1.3249-.7649c.1834-.4126.3016-.8512.35-1.3h1.5299c.2761 0 .5-.2239.5-.4999s-.2239-.4998-.5-.4998z"/></g></svg>

<svg width="28" height="32" viewBox="0 0 28 32" fill="none" xmlns="http://www.w3.org/2000/svg">
<path d="M17.8551 17.9886V4.21166C17.8551 1.88941 15.9649 0 13.6415 0C11.3182 0 9.42801 1.88941 9.42801 4.21166V17.9886C7.27577 19.4097 6 21.7674 6 24.3566C6 28.5712 9.42838 32 13.6423 32C17.8558 32 21.2831 28.5712 21.2831 24.3566C21.2831 21.7674 20.0073 19.4097 17.8551 17.9886ZM13.6423 30.8816C10.045 30.8816 7.11844 27.9542 7.11844 24.3566C7.11844 22.0556 8.29914 19.9693 10.2765 18.7752C10.4439 18.6742 10.5468 18.4926 10.5468 18.2969V4.21166C10.5468 2.50605 11.9355 1.11844 13.6419 1.11844C15.3483 1.11844 16.737 2.50605 16.737 4.21166V18.2969C16.737 18.4926 16.8395 18.6742 17.0073 18.7752C18.9851 19.9693 20.1654 22.0556 20.1654 24.3566C20.1646 27.9542 17.2388 30.8816 13.6423 30.8816ZM14.2008 20.9633V8.93147C14.2008 8.62241 13.9506 8.37225 13.6415 8.37225C13.3325 8.37225 13.0823 8.62241 13.0823 8.93147V20.9633C11.449 21.2317 10.1979 22.6487 10.1979 24.3566C10.1979 26.2572 11.7432 27.8029 13.6415 27.8029C15.541 27.8029 17.086 26.2572 17.086 24.3566C17.086 22.6491 15.8344 21.2313 14.2008 20.9633ZM13.6415 26.6844C12.3594 26.6844 11.3163 25.6402 11.3163 24.3566C11.3163 23.0749 12.3594 22.0325 13.6415 22.0325C14.924 22.0325 15.9675 23.0752 15.9675 24.3566C15.9675 25.6402 14.924 26.6844 13.6415 26.6844Z" fill="white"/>
<path d="M6.01188 17.6783C6.28801 17.6783 6.51184 17.4544 6.51184 17.1784V16.6134L7.23683 17.1134C7.31964 17.1627 7.41567 17.1853 7.51185 17.1783C7.78793 17.1761 8.01007 16.9506 8.00791 16.6745C8.0067 16.5094 7.92384 16.3554 7.78683 16.2634L6.51189 15.4084V14.5907V13.1086V12.0446V10.3129V9.24881V8.20892V6.94899L7.78683 6.09405C8.00191 5.92085 8.03578 5.6061 7.86258 5.39107C7.71171 5.20376 7.44885 5.15045 7.23688 5.26412L6.51189 5.74411V5.17916C6.51189 4.90302 6.28807 4.6792 6.01193 4.6792C5.7358 4.6792 5.51198 4.90302 5.51198 5.17916V5.74411L4.78704 5.24416C4.57196 5.07096 4.25716 5.10483 4.08396 5.31991C3.91081 5.53499 3.94468 5.84968 4.15971 6.02288C4.18384 6.04232 4.2097 6.05944 4.23699 6.07413L5.51192 6.94904V9.24892C5.16136 9.33862 4.84166 9.52178 4.58697 9.7789L2.5871 8.62896L2.51208 7.09907C2.49001 6.82299 2.24823 6.61702 1.97215 6.6392C1.69607 6.66127 1.49015 6.90301 1.51222 7.17914L1.56717 8.04409L1.06721 7.75906C0.826952 7.62099 0.520319 7.70385 0.382306 7.94406C0.244187 8.18432 0.327049 8.491 0.567255 8.62896L1.06721 8.90899L0.287225 9.29396C0.0468074 9.42965 -0.038108 9.7346 0.0975875 9.97512C0.182608 10.1257 0.339427 10.2217 0.51226 10.2288C0.59038 10.2274 0.667235 10.2085 0.737243 10.1738L2.11216 9.49386L4.11199 10.6488C4.00537 10.994 4.00537 11.3634 4.11199 11.7087L2.11216 12.8636L0.72223 12.1787C0.47507 12.056 0.175287 12.1566 0.0522862 12.4037C-0.0704509 12.6507 0.0302671 12.9506 0.277269 13.0736L1.0572 13.4586L0.557246 13.7386C0.316987 13.8766 0.234232 14.1833 0.372246 14.4235C0.510312 14.6638 0.816943 14.7466 1.0572 14.6085L1.55716 14.3235L1.51217 15.1784C1.49226 15.4539 1.69933 15.6933 1.97473 15.7133C1.97552 15.7133 1.97625 15.7134 1.97715 15.7134H2.01218C2.27693 15.7139 2.49618 15.5078 2.51208 15.2434L2.61206 13.7135L4.61189 12.5636C4.85789 12.8224 5.16858 13.0105 5.51182 13.1085V15.4084L4.23688 16.2634C4.02186 16.4366 3.98793 16.7513 4.16113 16.9664C4.31195 17.1537 4.57486 17.207 4.78683 17.0933L5.51177 16.5934V17.1783C5.51187 17.4544 5.7357 17.6783 6.01188 17.6783Z" fill="white"/>
<path d="M26.8673 10.6924H25.3374C25.289 10.2436 25.1709 9.80498 24.9874 9.39246L26.3123 8.62754C26.5526 8.48948 26.6353 8.18279 26.4973 7.94253C26.3592 7.70227 26.0526 7.61947 25.8124 7.75753L24.4824 8.52746C24.2177 8.16283 23.8972 7.84218 23.5325 7.57753L24.3024 6.2476C24.4404 6.00734 24.3577 5.70071 24.1174 5.56259C23.8771 5.42458 23.5705 5.50744 23.4324 5.74765L22.6675 7.07252C22.255 6.889 21.8165 6.77089 21.3675 6.72254V5.19264C21.3675 4.91651 21.1437 4.69269 20.8676 4.69269C20.5915 4.69269 20.3677 4.91651 20.3677 5.19264V6.72254V7.72856C20.5311 7.70517 20.6979 7.69242 20.8676 7.69242C22.8004 7.69242 24.3674 9.25935 24.3674 11.1922C24.3674 13.125 22.8005 14.692 20.8676 14.692C20.6978 14.692 20.531 14.6792 20.3677 14.6558V15.662V17.1918C20.3677 17.4679 20.5915 17.6918 20.8676 17.6918C21.1437 17.6918 21.3675 17.4679 21.3675 17.1918V15.662C21.8164 15.6135 22.255 15.4954 22.6675 15.3119L23.4324 16.6368C23.5705 16.8771 23.8771 16.9599 24.1174 16.8218C24.3577 16.6837 24.4404 16.3771 24.3024 16.1369L23.5325 14.807C23.8972 14.5423 24.2177 14.2217 24.4824 13.857L25.8124 14.6269C26.0526 14.765 26.3592 14.6822 26.4973 14.4419C26.6353 14.2016 26.5526 13.8951 26.3123 13.757L24.9874 12.9921C25.1708 12.5795 25.289 12.1409 25.3374 11.6921H26.8673C27.1434 11.6921 27.3673 11.4682 27.3673 11.1922C27.3673 10.9162 27.1434 10.6924 26.8673 10.6924Z" fill="white"/>
</svg>
